X: 36722
T: Sheep In The Boat, The
R: jig
M: 6/8
K: Edorian
|:BEF GFE|FED dfd|edB BAF|AFE FED|
E2F GFE|FED dBd|edB BAF|AFE E2B:|
B2e ede|~f2e def|edB BAF|AFE FED|
E2e ede|~f2e def|edB BAF|AFE E2B|
B2e ede|fef def|edB BAF|AFE FED|
E2F GFE|FED dfd|edB BAF|AFE E2B||

